dhis-2/dhis-support/dhis-support-system/src/main/resources/SVGs/pills_2_negative.svg

<svg width="48" height="48" viewBox="0 0 48 48" fill="none" xmlns="http://www.w3.org/2000/svg">
<path fill-rule="evenodd" clip-rule="evenodd" d="M0 0V47.9994H47.9994V0H0ZM13.3008 4.00775C14.9638 3.96975 16.6568 4.36855 18.2028 5.24603C22.3127 7.58841 24.0347 12.5558 22.3847 16.8869C22.0687 17.6439 21.5847 17.5649 21.1717 17.3299L6.30292 8.86519C5.88523 8.62759 5.43373 8.3665 6.04292 7.6289C7.8386 5.34593 10.5289 4.07125 13.3008 4.00785V4.00775ZM5.19333 9.52718C5.40543 9.48918 5.63363 9.57898 5.85153 9.70298L20.6493 18.1268C21.1143 18.3918 21.5763 18.6538 20.9293 19.4258C18.0514 23.0517 12.9074 24.1077 8.79649 21.7747C4.68084 19.4298 2.96076 14.4518 4.62254 10.1169C4.78384 9.73198 4.98074 9.56528 5.19293 9.52718H5.19333ZM34.723 25.006C37.4899 25.089 40.1659 26.377 41.9449 28.6619C42.4289 29.3249 42.1129 29.6959 41.6969 29.9279L26.7381 38.2518C26.3181 38.4858 25.8621 38.7328 25.5471 37.8298C23.9131 33.4799 25.6771 28.5129 29.818 26.201C31.37 25.339 33.062 24.956 34.723 25.006ZM42.7889 30.5489C43.0039 30.5709 43.2009 30.7439 43.3629 31.2209C44.9718 35.5609 43.2049 40.5058 39.0759 42.8108C34.934 45.1127 29.783 44.0038 26.9381 40.3358C26.4461 39.6608 26.7821 39.3138 27.2211 39.0698L42.1069 30.7869C42.3409 30.6569 42.5739 30.5269 42.7889 30.5489Z" fill="#333333"/>
</svg>

<?xml version="1.0" encoding="UTF-8" standalone="no"?>
<!-- Created with Inkscape (http://www.inkscape.org/) -->
<svg id="svg8" xmlns:rdf="http://www.w3.org/1999/02/22-rdf-syntax-ns#" xmlns="http://www.w3.org/2000/svg" xmlns:osb="http://www.openswatchbook.org/uri/2009/osb" height="48" width="48" version="1.1" xmlns:cc="http://creativecommons.org/ns#" viewBox="0 0 12.7 12.7" xmlns:dc="http://purl.org/dc/elements/1.1/">
 <title id="title4753">UIO-icon</title>
 <metadata id="metadata5">
  <rdf:RDF>
   <cc:Work rdf:about="">
    <dc:format>image/svg+xml</dc:format>
    <dc:type rdf:resource="http://purl.org/dc/dcmitype/StillImage"/>
    <dc:title>UIO-icon</dc:title>
    <dc:creator>
     <cc:Agent>
      <dc:title>Joaquín Urbano</dc:title>
     </cc:Agent>
    </dc:creator>
    <dc:rights>
     <cc:Agent>
      <dc:title>GPL</dc:title>
     </cc:Agent>
    </dc:rights>
   </cc:Work>
  </rdf:RDF>
 </metadata>
 <g id="layer1" fill="#333" transform="translate(0,-284.3)">
  <path id="rect881" d="m0 0v48h48v-48h-48zm13.301 4.0078c1.663-0.038 3.356 0.3608 4.902 1.2383 4.11 2.3424 5.832 7.3099 4.182 11.641-0.316 0.757-0.8 0.678-1.213 0.443l-14.869-8.4648c-0.4177-0.2376-0.8692-0.4987-0.26-1.2363 1.7957-2.283 4.486-3.5577 7.258-3.6211zm-8.1076 5.5195c0.2121-0.038 0.4403 0.0518 0.6582 0.1758l14.798 8.4239c0.465 0.265 0.927 0.527 0.28 1.299-2.878 3.626-8.022 4.682-12.133 2.349-4.1157-2.345-5.8358-7.323-4.174-11.658 0.1613-0.3849 0.3582-0.5516 0.5704-0.5897zm29.53 15.479c2.767 0.083 5.443 1.371 7.222 3.656 0.484 0.663 0.168 1.034-0.248 1.266l-14.959 8.324c-0.42 0.234-0.876 0.481-1.191-0.422-1.634-4.35 0.13-9.317 4.271-11.629 1.552-0.862 3.244-1.245 4.905-1.195zm8.066 5.543c0.215 0.022 0.412 0.195 0.574 0.672 1.609 4.34-0.158 9.285-4.287 11.59-4.142 2.302-9.293 1.193-12.138-2.475-0.492-0.675-0.156-1.022 0.283-1.266l14.886-8.283c0.234-0.13 0.467-0.26 0.682-0.238z" fill-rule="evenodd" transform="matrix(.26458 0 0 .26458 0 284.3)"/>
 </g>
</svg>
